X:1
T:Title
%%score { ( 1 3 ) | ( 2 4 ) }
L:1/8
M:4/4
K:G
V:1 treble nm="Grand Piano"
V:3 treble 
V:2 bass 
V:4 bass 
V:1
 z4 z2[Q:1/4=100] G>A | BBBA G2 E2 | [B,D]2 D2 D2 Bc | d>d dB G2 B2 | [FA]2 [GA]2 [FA]2 [FA][FB] | %5
 [Fc]>[Fc] [Fc][FB] [FA]2 DD | [Gd]>[Gd] [Fd][Fc] B2 DD | E2 F2 (3GGG A2 |[M:3/4] B3 c B2 | %9
[M:1/4] BB |[M:4/4] e6 z2 | d6 z2 | [CEc]2 [CGc]2 (3[DGB][DGB][DGB] [DGB]2 | %13
 (3[Ad]4 [Ac][GB] [DFA]2 GG | e6 z2 | d6 z2 | [=FGd]2 [EGc]2 (3[GB][GB][GB] [GB]2 | %17
[M:7/8] [FA]- [FA]3 [G,B,G]3 |] %18
V:2
 z4 z2 [G,B,]>[G,C] | [G,D][G,D][G,D][D,F,C] [E,G,B,]2 [C,G,C]2 | %2
 [G,,G,]2 [D,F,C]2 [G,B,]2[K:treble] [G,D][G,A,D] | [G,B,G]>[G,B,G] [G,B,G][G,DG] [B,D]2 [G,DG]2 | %4
 [D,D]2 [E,^C]2 [D,D]2 [D,D][D,D] | [D,A,]>[D,A,] [D,A,][D,B,] [D,C]2 [D,C][C,F,] | %6
 [B,,G,]>[B,,G,] [D,A,][D,D] [G,DG]2 D,D, | E,2 F,2 (3G,G,G, A,2 |[M:3/4] B,3 C B,2 |[M:1/4] z2 | %10
[M:4/4] z2 [E,D][E,E] [A,C]2 z2 | z2 [D,C][D,C] [G,B,]2 B,,B,, | C,2 E,2 (3G,G,G, G,2 | %13
 F,2 (3F,F,G, D,2 z2 | z2 [E,D][E,D] [A,C]2 z2 | z4 .B,2 z2 | C2 C,2 (3[D,D][D,D][D,D] [D,D]2 | %17
[M:7/8] D2 z z z z2 |] %18
V:3
 x8 | x8 | x8 | x8 | x8 | x8 | x8 | x8 |[M:3/4] x6 |[M:1/4] x2 |[M:4/4] z2 ^GG A2 AA | %11
 z2 FF G2 [D=FG][DFG] | x8 | D4 z4 | z2 ^GG A2 AA | z2 FF G2 [=FGd][FGd] | x8 |[M:7/8] x7 |] %18
V:4
 x8 | x8 | x6[K:treble] x2 | x8 | x8 | x8 | x8 | x8 |[M:3/4] x6 |[M:1/4] x2 |[M:4/4] x8 | x8 | x8 | %13
 x8 | x8 | z2 [D,C][D,C] G,-[G,D]B,B, | x8 |[M:7/8] D,2- [D,C]2 G,,3 |] %18

